build/system/DesktopMonitoringSolid.svg

<svg xmlns="http://www.w3.org/2000/svg" fill="none" viewBox="0 0 24 24" focusable="false"><path d="M0 0H24V24H0z"/><path fill="#74767B" fill-rule="evenodd" d="M6.05928 3.99365C4.37481 3.99365 3.00928 5.35918 3.00928 7.04365L3.00928 9.13096C3.00928 9.51756 3.32268 9.83096 3.70928 9.83096L8.75443 9.83096C8.97033 9.83096 9.17214 9.93816 9.29301 10.117L9.84758 10.9378L11.3245 7.0231C11.425 6.75697 11.6867 6.58703 11.9707 6.60366C12.2546 6.62028 12.4948 6.8196 12.5635 7.09563L13.6748 11.5631L14.1609 10.2546C14.2555 9.99994 14.4985 9.83096 14.7702 9.83096L20.2904 9.83096C20.677 9.83096 20.9904 9.51756 20.9904 9.13096L20.9904 7.04365C20.9904 5.35918 19.6248 3.99365 17.9404 3.99365L6.05928 3.99365ZM15.2222 11.131L20.2904 11.131C20.677 11.131 20.9904 11.4444 20.9904 11.831L20.9904 13.9653C20.9904 15.6498 19.6248 17.0153 17.9404 17.0153L13.9897 17.0153L13.9897 18.7026L15.3402 18.7026C15.6991 18.7026 15.9902 18.9937 15.9902 19.3526C15.9902 19.7116 15.6991 20.0026 15.3402 20.0026L8.6597 20.0026C8.30072 20.0026 8.0097 19.7116 8.0097 19.3526C8.0097 18.9937 8.30072 18.7026 8.6597 18.7026L10.0058 18.7026L10.0058 17.0153L6.05928 17.0153C4.37481 17.0153 3.00928 15.6498 3.00928 13.9653L3.00928 11.831C3.00928 11.4444 3.32268 11.131 3.70928 11.131L8.40917 11.131L9.47373 12.7064C9.60975 12.9078 9.84669 13.0164 10.088 12.9881C10.3293 12.9598 10.5347 12.7993 10.6205 12.572L11.8051 9.4321L12.921 13.9179C12.9899 14.1945 13.2309 14.3941 13.5155 14.41C13.8001 14.4259 14.0619 14.2545 14.1611 13.9873L15.2222 11.131Z"/></svg>

<svg xmlns="http://www.w3.org/2000/svg" fill="none" viewBox="0 0 24 24" focusable="false"><path fill="#74767B" fill-rule="evenodd" d="M3 7.04a3.05 3.05 0 0 1 3.05-3.05h11.89a3.05 3.05 0 0 1 3.05 3.05v2.09c0 .38-.32.7-.7.7h-5.52c-.28 0-.52.16-.61.42l-.49 1.31-1.11-4.47a.65.65 0 0 0-.59-.49.64.64 0 0 0-.65.42l-1.48 3.91-.55-.82a.64.64 0 0 0-.54-.28H3.7c-.38 0-.7-.32-.7-.7zm12.22 4.09h5.07c.38 0 .7.31.7.7v2.13c0 1.68-1.37 3.05-3.05 3.05h-3.96v1.69h1.36c.35 0 .65.29.65.65s-.3.65-.65.65H8.65c-.35 0-.65-.29-.65-.65s.3-.65.65-.65H10v-1.69H6.05C4.37 17.01 3 15.64 3 13.96v-2.13c0-.39.32-.7.7-.7h4.7l1.07 1.57c.13.2.37.31.61.28s.45-.19.54-.41l1.18-3.14 1.12 4.48c.06.28.31.48.59.5.29.01.55-.16.65-.43z"/></svg>
